src/assets/illustrations/feature/systems.svg

<svg xmlns="http://www.w3.org/2000/svg" width="800" height="450" viewBox="0 0 800 450">
  <g>
    <rect width="800" height="450" fill="#f2f5f7"/>
    <g>
      <line x1="400" y1="10" x2="400" y2="440" fill="none" stroke="#c0cfd8" stroke-linecap="round" stroke-miterlimit="10" stroke-width="2"/>
      <line x1="320" y1="10" x2="320" y2="440" fill="none" stroke="#c0cfd8" stroke-linecap="round" stroke-miterlimit="10" stroke-width="2"/>
      <line x1="240" y1="10" x2="240" y2="440" fill="none" stroke="#c0cfd8" stroke-linecap="round" stroke-miterlimit="10" stroke-width="2"/>
      <line x1="160" y1="10" x2="160" y2="440" fill="none" stroke="#c0cfd8" stroke-linecap="round" stroke-miterlimit="10" stroke-width="2"/>
      <line x1="80" y1="10" x2="80" y2="440" fill="none" stroke="#c0cfd8" stroke-linecap="round" stroke-miterlimit="10" stroke-width="2"/>
      <line x1="720" y1="10" x2="720" y2="440" fill="none" stroke="#c0cfd8" stroke-linecap="round" stroke-miterlimit="10" stroke-width="2"/>
      <line x1="640" y1="10" x2="640" y2="440" fill="none" stroke="#c0cfd8" stroke-linecap="round" stroke-miterlimit="10" stroke-width="2"/>
      <line x1="560" y1="10" x2="560" y2="440" fill="none" stroke="#c0cfd8" stroke-linecap="round" stroke-miterlimit="10" stroke-width="2"/>
      <line x1="480" y1="10" x2="480" y2="440" fill="none" stroke="#c0cfd8" stroke-linecap="round" stroke-miterlimit="10" stroke-width="2"/>
      <line x1="10.18273" y1="225" x2="790" y2="225" fill="none" stroke="#c0cfd8" stroke-linecap="round" stroke-miterlimit="10" stroke-width="2"/>
      <line x1="10.18273" y1="300" x2="790" y2="300" fill="none" stroke="#c0cfd8" stroke-linecap="round" stroke-miterlimit="10" stroke-width="2"/>
      <line x1="10.18273" y1="375" x2="790" y2="375" fill="none" stroke="#c0cfd8" stroke-linecap="round" stroke-miterlimit="10" stroke-width="2"/>
      <line x1="10.18273" y1="150" x2="790" y2="150" fill="none" stroke="#c0cfd8" stroke-linecap="round" stroke-miterlimit="10" stroke-width="2"/>
      <line x1="10.18273" y1="75" x2="790" y2="75" fill="none" stroke="#c0cfd8" stroke-linecap="round" stroke-miterlimit="10" stroke-width="2"/>
    </g>
    <circle cx="400" cy="225" r="200" fill="none" stroke="#f2f5f7" stroke-linecap="round" stroke-miterlimit="10" stroke-width="18"/>
    <circle cx="400" cy="225" r="200" fill="none" stroke="#c0cfd8" stroke-linecap="round" stroke-miterlimit="10" stroke-width="12"/>
    <g>
      <circle cx="90.00001" cy="89.99999" r="69.99999" fill="#f2f5f7" stroke="#f2f5f7" stroke-miterlimit="10" stroke-width="10"/>
      <circle cx="89.99999" cy="89.99999" r="69.99999" fill="none" stroke="#c0cfd8" stroke-miterlimit="10" stroke-width="4"/>
      <circle cx="89.99997" cy="89.99998" r="32.66665" transform="translate(-3.98585 4.17075) rotate(-2.59722)" fill="none" stroke="#c0cfd8" stroke-miterlimit="10" stroke-width="2"/>
      <circle cx="90" cy="90.00002" r="23.33334" fill="none" stroke="#c0cfd8" stroke-miterlimit="10" stroke-width="2"/>
      <path d="M107.84823,35.06177c8.58855,1.45126,15.31389,4.60794,20.17599,9.47003,4.8621,4.86212,7.93497,11.50363,9.2186,19.92459" fill="none" stroke="#c0cfd8" stroke-linecap="round" stroke-miterlimit="10" stroke-width="2"/>
      <path d="M109.44771,43.81634c5.43542,.84988,9.70651,2.84106,12.81325,5.97354,3.10674,3.13248,5.09643,7.45395,5.96904,12.96435" fill="none" stroke="#c0cfd8" stroke-linecap="round" stroke-miterlimit="10" stroke-width="2"/>
      <path d="M68.04775,138.99998c-8.58856-1.45123-15.31389-4.60791-20.176-9.47-4.86211-4.86212-7.93497-11.50363-9.2186-19.92459" fill="none" stroke="#c0cfd8" stroke-linecap="round" stroke-miterlimit="10" stroke-width="2"/>
      <path d="M66.44831,130.24538c-5.43543-.84985-9.70651-2.84103-12.81325-5.97351-3.10674-3.13248-5.09642-7.45395-5.96904-12.96435" fill="none" stroke="#c0cfd8" stroke-linecap="round" stroke-miterlimit="10" stroke-width="2"/>
    </g>
    <g>
      <circle cx="710.00001" cy="89.99999" r="69.99999" fill="#f2f5f7" stroke="#f2f5f7" stroke-miterlimit="10" stroke-width="10"/>
      <circle cx="709.99999" cy="89.99999" r="69.99999" fill="none" stroke="#c0cfd8" stroke-miterlimit="10" stroke-width="4"/>
      <circle cx="709.99997" cy="89.99998" r="32.66665" transform="translate(-3.34897 32.26571) rotate(-2.59722)" fill="none" stroke="#c0cfd8" stroke-miterlimit="10" stroke-width="2"/>
      <circle cx="710" cy="90.00002" r="23.33334" fill="none" stroke="#c0cfd8" stroke-miterlimit="10" stroke-width="2"/>
      <path d="M727.84823,35.06177c8.58855,1.45126,15.31389,4.60794,20.17599,9.47003,4.8621,4.86212,7.93497,11.50363,9.2186,19.92459" fill="none" stroke="#c0cfd8" stroke-linecap="round" stroke-miterlimit="10" stroke-width="2"/>
      <path d="M729.44771,43.81634c5.43542,.84988,9.70651,2.84106,12.81325,5.97354,3.10674,3.13248,5.09643,7.45395,5.96904,12.96435" fill="none" stroke="#c0cfd8" stroke-linecap="round" stroke-miterlimit="10" stroke-width="2"/>
      <path d="M688.04775,138.99998c-8.58856-1.45123-15.31389-4.60791-20.176-9.47-4.86211-4.86212-7.93497-11.50363-9.2186-19.92459" fill="none" stroke="#c0cfd8" stroke-linecap="round" stroke-miterlimit="10" stroke-width="2"/>
      <path d="M686.44831,130.24538c-5.43543-.84985-9.70651-2.84103-12.81325-5.97351-3.10674-3.13248-5.09642-7.45395-5.96904-12.96435" fill="none" stroke="#c0cfd8" stroke-linecap="round" stroke-miterlimit="10" stroke-width="2"/>
    </g>
    <g>
      <circle cx="90.00001" cy="360.00001" r="69.99999" fill="#f2f5f7" stroke="#f2f5f7" stroke-miterlimit="10" stroke-width="10"/>
      <circle cx="89.99999" cy="360.00001" r="69.99999" fill="none" stroke="#c0cfd8" stroke-miterlimit="10" stroke-width="4"/>
      <circle cx="89.99997" cy="360" r="32.66665" transform="translate(-16.22076 4.4481) rotate(-2.59722)" fill="none" stroke="#c0cfd8" stroke-miterlimit="10" stroke-width="2"/>
      <circle cx="90" cy="360.00004" r="23.33334" fill="none" stroke="#c0cfd8" stroke-miterlimit="10" stroke-width="2"/>
      <path d="M107.84823,305.06178c8.58855,1.45126,15.31389,4.60794,20.17599,9.47003,4.8621,4.86212,7.93497,11.50363,9.2186,19.92459" fill="none" stroke="#c0cfd8" stroke-linecap="round" stroke-miterlimit="10" stroke-width="2"/>
      <path d="M109.44771,313.81636c5.43542,.84988,9.70651,2.84106,12.81325,5.97354,3.10674,3.13248,5.09643,7.45395,5.96904,12.96435" fill="none" stroke="#c0cfd8" stroke-linecap="round" stroke-miterlimit="10" stroke-width="2"/>
      <path d="M68.04775,409c-8.58856-1.45123-15.31389-4.60791-20.176-9.47-4.86211-4.86212-7.93497-11.50363-9.2186-19.92459" fill="none" stroke="#c0cfd8" stroke-linecap="round" stroke-miterlimit="10" stroke-width="2"/>
      <path d="M66.44831,400.2454c-5.43543-.84985-9.70651-2.84103-12.81325-5.97351-3.10674-3.13248-5.09642-7.45395-5.96904-12.96435" fill="none" stroke="#c0cfd8" stroke-linecap="round" stroke-miterlimit="10" stroke-width="2"/>
    </g>
    <g>
      <circle cx="710.00001" cy="360.00001" r="69.99999" fill="#f2f5f7" stroke="#f2f5f7" stroke-miterlimit="10" stroke-width="10"/>
      <circle cx="709.99999" cy="360.00001" r="69.99999" fill="none" stroke="#c0cfd8" stroke-miterlimit="10" stroke-width="4"/>
      <circle cx="709.99997" cy="360" r="32.66665" transform="translate(-15.58387 32.54305) rotate(-2.59722)" fill="none" stroke="#c0cfd8" stroke-miterlimit="10" stroke-width="2"/>
      <circle cx="710" cy="360.00004" r="23.33334" fill="none" stroke="#c0cfd8" stroke-miterlimit="10" stroke-width="2"/>
      <path d="M727.84823,305.06178c8.58855,1.45126,15.31389,4.60794,20.17599,9.47003,4.8621,4.86212,7.93497,11.50363,9.2186,19.92459" fill="none" stroke="#c0cfd8" stroke-linecap="round" stroke-miterlimit="10" stroke-width="2"/>
      <path d="M729.44771,313.81636c5.43542,.84988,9.70651,2.84106,12.81325,5.97354,3.10674,3.13248,5.09643,7.45395,5.96904,12.96435" fill="none" stroke="#c0cfd8" stroke-linecap="round" stroke-miterlimit="10" stroke-width="2"/>
      <path d="M688.04775,409c-8.58856-1.45123-15.31389-4.60791-20.176-9.47-4.86211-4.86212-7.93497-11.50363-9.2186-19.92459" fill="none" stroke="#c0cfd8" stroke-linecap="round" stroke-miterlimit="10" stroke-width="2"/>
      <path d="M686.44831,400.2454c-5.43543-.84985-9.70651-2.84103-12.81325-5.97351-3.10674-3.13248-5.09642-7.45395-5.96904-12.96435" fill="none" stroke="#c0cfd8" stroke-linecap="round" stroke-miterlimit="10" stroke-width="2"/>
    </g>
    <circle cx="400" cy="225" r="120" fill="#f2f5f7" stroke="#f2f5f7" stroke-miterlimit="10" stroke-width="16"/>
    <g>
      <path d="M760.30669,413.62056c-4.38029-1.59313-8.98472-2.48628-13.64266-2.6467-.19739-1.17143-.52423-2.31715-.97348-3.41679-6.09376-15.06179-26.09433-23.9055-46.23448-19.34267-13.0365,2.95293-22.64719,10.72335-26.337,19.97629-6.92111,.08185-14.20993,2.01307-20.23398,5.71486-13.50795,8.3047-21.25824,23.15593-20.53877,36.09445h157.03988c.05246-14.69312-11.54279-30.10905-29.07952-36.37944Z" fill="#c0cfd8"/>
      <path d="M800,354.48109c-7.65135-5.07277-16.6566-8.01109-26.30801-8.01109-24.99069,.02124-45.69188,19.63069-49.54834,45.32185h-.64888c-29.43231-.92772-46.12827,21.44406-46.12827,47.90195,0,3.72446,.43232,7.15052,1.22166,10.3062h121.41185v-95.51891Z" fill="#fff" fill-rule="evenodd"/>
    </g>
  </g>
  <path d="M520.23704,225.06036c-.1942,66.32717-54.12044,119.93855-120.44761,119.74435-66.32716-.1942-119.93855-54.12044-119.74435-120.44761,.1942-66.32716,54.12045-119.93855,120.44761-119.74435,66.32717,.1942,119.93855,54.12045,119.74435,120.44761Z" fill="#0e1c43"/>
  <g>
    <path d="M399.82942,223.91237l-58.25619-.17057,.14457-49.37509c.01439-4.91514,4.01134-8.88832,8.92605-8.87393l49.3562,.14451-.17062,58.27508Z" fill="#3d84f5"/>
    <path d="M458.10451,224.08299l-58.27509-.17062,.17062-58.27508,49.35619,.14451c4.91471,.01439,8.88833,4.01091,8.87394,8.92605l-.12567,49.37515Z" fill="#183889"/>
    <path d="M399.6588,282.18745l-49.3562-.14451c-4.89405-.01433-8.85811-3.97522-8.8741-8.86935l.14473-49.43179,58.25619,.17057-.17062,58.27509h0Z" fill="#215cca"/>
    <path d="M370.86979,208.2383c7.53465,.02206,13.66075-6.06828,13.68281-13.60293,.02206-7.53508-6.06828-13.66075-13.60292-13.68281s-13.66076,6.06784-13.68282,13.60292c-.02206,7.53465,6.06828,13.66076,13.60293,13.68282Z" fill="none" stroke="#fff" stroke-linejoin="round" stroke-width="6.59164"/>
    <path d="M370.77618,240.21023l-14.47147,24.80601,28.70293,.08404-14.23147-24.89005Z" fill="none" stroke="#fff" stroke-linejoin="round" stroke-width="6.59164"/>
    <path d="M416.95887,194.82473l25.30167,.07408" fill="none" stroke="#fff" stroke-linecap="round" stroke-linejoin="round" stroke-width="6.59164"/>
    <path d="M416.92346,206.91813l25.30167,.07408" fill="none" stroke="#fff" stroke-linecap="round" stroke-linejoin="round" stroke-width="6.59164"/>
    <path d="M416.99428,182.73133l25.30167,.07408" fill="none" stroke="#fff" stroke-linecap="round" stroke-linejoin="round" stroke-width="6.59164"/>
    <path d="M399.83865,223.91239l58.25619,.17057-.14457,49.3751c-.01439,4.91471-4.0109,8.88832-8.92604,8.87393l-49.3562-.14451,.17062-58.27509h0Z" fill="#c0cfd8"/>
    <path d="M458.1966,295.88846l-49.3033-5.303,6.3307-58.25704,58.25706,6.3307-5.30311,49.34109c-.6059,4.91869-5.05501,8.43528-9.98135,7.88825" fill="#d9118f"/>
    <path d="M449.17872,278.04304l-18.89041-1.94492c-1.63944-.19201-2.81809-1.67332-2.63576-3.31455l2.0394-18.89013c.18055-1.6285,1.64645-2.80147,3.2767-2.62092l.03779,.00407,18.79593,1.94464c1.63439,.11245,2.86949,1.52757,2.75703,3.16152-.00594,.08348-.01366,.16651-.02709,.24777l-1.9449,18.89041c-.30132,1.6031-1.78811,2.70262-3.40869,2.52211Z" fill="none" stroke="#fff" stroke-linejoin="round" stroke-width="6.59164"/>
  </g>
  <line x1="269.73347" y1="225.02348" x2="540.10753" y2="225.08639" fill="none"/>
</svg>

<svg width="800" height="450" viewBox="0 0 800 450" fill="none" xmlns="http://www.w3.org/2000/svg">
<path d="M800 0H0V450H800V0Z" fill="#F2F5F7"/>
<path d="M400 10V440" stroke="#C0CFD8" stroke-width="2" stroke-miterlimit="10" stroke-linecap="round"/>
<path d="M320 10V440" stroke="#C0CFD8" stroke-width="2" stroke-miterlimit="10" stroke-linecap="round"/>
<path d="M240 10V440" stroke="#C0CFD8" stroke-width="2" stroke-miterlimit="10" stroke-linecap="round"/>
<path d="M160 10V440" stroke="#C0CFD8" stroke-width="2" stroke-miterlimit="10" stroke-linecap="round"/>
<path d="M80 10V440" stroke="#C0CFD8" stroke-width="2" stroke-miterlimit="10" stroke-linecap="round"/>
<path d="M720 10V440" stroke="#C0CFD8" stroke-width="2" stroke-miterlimit="10" stroke-linecap="round"/>
<path d="M640 10V440" stroke="#C0CFD8" stroke-width="2" stroke-miterlimit="10" stroke-linecap="round"/>
<path d="M560 10V440" stroke="#C0CFD8" stroke-width="2" stroke-miterlimit="10" stroke-linecap="round"/>
<path d="M480 10V440" stroke="#C0CFD8" stroke-width="2" stroke-miterlimit="10" stroke-linecap="round"/>
<path d="M10.1827 225H790" stroke="#C0CFD8" stroke-width="2" stroke-miterlimit="10" stroke-linecap="round"/>
<path d="M10.1827 300H790" stroke="#C0CFD8" stroke-width="2" stroke-miterlimit="10" stroke-linecap="round"/>
<path d="M10.1827 375H790" stroke="#C0CFD8" stroke-width="2" stroke-miterlimit="10" stroke-linecap="round"/>
<path d="M10.1827 150H790" stroke="#C0CFD8" stroke-width="2" stroke-miterlimit="10" stroke-linecap="round"/>
<path d="M10.1827 75H790" stroke="#C0CFD8" stroke-width="2" stroke-miterlimit="10" stroke-linecap="round"/>
<path d="M400 425C510.457 425 600 335.457 600 225C600 114.543 510.457 25 400 25C289.543 25 200 114.543 200 225C200 335.457 289.543 425 400 425Z" stroke="#F2F5F7" stroke-width="18" stroke-miterlimit="10" stroke-linecap="round"/>
<path d="M400 425C510.457 425 600 335.457 600 225C600 114.543 510.457 25 400 25C289.543 25 200 114.543 200 225C200 335.457 289.543 425 400 425Z" stroke="#C0CFD8" stroke-width="12" stroke-miterlimit="10" stroke-linecap="round"/>
<path d="M90 160C128.66 160 160 128.66 160 90C160 51.3401 128.66 20 90 20C51.3401 20 20 51.3401 20 90C20 128.66 51.3401 160 90 160Z" fill="#F2F5F7" stroke="#F2F5F7" stroke-width="10" stroke-miterlimit="10"/>
<path d="M90 160C128.66 160 160 128.66 160 90C160 51.3401 128.66 20 90 20C51.3401 20 20 51.3401 20 90C20 128.66 51.3401 160 90 160Z" stroke="#C0CFD8" stroke-width="4" stroke-miterlimit="10"/>
<path d="M91.4802 122.633C109.503 121.816 123.451 106.542 122.633 88.5197C121.816 70.497 106.542 56.5494 88.5197 57.3669C70.4969 58.1844 56.5493 73.4575 57.3669 91.4803C58.1844 109.503 73.4575 123.451 91.4802 122.633Z" stroke="#C0CFD8" stroke-width="2" stroke-miterlimit="10"/>
<path d="M90 113.333C102.887 113.333 113.333 102.887 113.333 90C113.333 77.1134 102.887 66.6667 90 66.6667C77.1133 66.6667 66.6666 77.1134 66.6666 90C66.6666 102.887 77.1133 113.333 90 113.333Z" stroke="#C0CFD8" stroke-width="2" stroke-miterlimit="10"/>
<path d="M107.848 35.0618C116.437 36.513 123.162 39.6697 128.024 44.5318C132.886 49.3939 135.959 56.0354 137.243 64.4564" stroke="#C0CFD8" stroke-width="2" stroke-miterlimit="10" stroke-linecap="round"/>
<path d="M109.448 43.8163C114.883 44.6662 119.154 46.6574 122.261 49.7899C125.368 52.9224 127.357 57.2438 128.23 62.7542" stroke="#C0CFD8" stroke-width="2" stroke-miterlimit="10" stroke-linecap="round"/>
<path d="M68.0477 139C59.4592 137.549 52.7338 134.392 47.8717 129.53C43.0096 124.668 39.9368 118.026 38.6531 109.605" stroke="#C0CFD8" stroke-width="2" stroke-miterlimit="10" stroke-linecap="round"/>
<path d="M66.4483 130.245C61.0129 129.396 56.7418 127.404 53.6351 124.272C50.5283 121.139 48.5386 116.818 47.666 111.307" stroke="#C0CFD8" stroke-width="2" stroke-miterlimit="10" stroke-linecap="round"/>
<path d="M710 160C748.66 160 780 128.66 780 90C780 51.3401 748.66 20 710 20C671.34 20 640 51.3401 640 90C640 128.66 671.34 160 710 160Z" fill="#F2F5F7" stroke="#F2F5F7" stroke-width="10" stroke-miterlimit="10"/>
<path d="M710 160C748.66 160 780 128.66 780 90C780 51.3401 748.66 20 710 20C671.34 20 640 51.3401 640 90C640 128.66 671.34 160 710 160Z" stroke="#C0CFD8" stroke-width="4" stroke-miterlimit="10"/>
<path d="M711.48 122.633C729.503 121.815 743.451 106.542 742.633 88.5197C741.816 70.4969 726.542 56.5493 708.52 57.3668C690.497 58.1844 676.549 73.4574 677.367 91.4802C678.184 109.503 693.458 123.451 711.48 122.633Z" stroke="#C0CFD8" stroke-width="2" stroke-miterlimit="10"/>
<path d="M710 113.333C722.887 113.333 733.333 102.887 733.333 90C733.333 77.1134 722.887 66.6667 710 66.6667C697.113 66.6667 686.667 77.1134 686.667 90C686.667 102.887 697.113 113.333 710 113.333Z" stroke="#C0CFD8" stroke-width="2" stroke-miterlimit="10"/>
<path d="M727.848 35.0618C736.437 36.513 743.162 39.6697 748.024 44.5318C752.886 49.3939 755.959 56.0354 757.243 64.4564" stroke="#C0CFD8" stroke-width="2" stroke-miterlimit="10" stroke-linecap="round"/>
<path d="M729.448 43.8163C734.883 44.6662 739.154 46.6574 742.261 49.7899C745.368 52.9224 747.357 57.2438 748.23 62.7542" stroke="#C0CFD8" stroke-width="2" stroke-miterlimit="10" stroke-linecap="round"/>
<path d="M688.048 139C679.459 137.549 672.734 134.392 667.872 129.53C663.01 124.668 659.937 118.026 658.653 109.605" stroke="#C0CFD8" stroke-width="2" stroke-miterlimit="10" stroke-linecap="round"/>
<path d="M686.448 130.245C681.013 129.396 676.742 127.404 673.635 124.272C670.528 121.139 668.539 116.818 667.666 111.307" stroke="#C0CFD8" stroke-width="2" stroke-miterlimit="10" stroke-linecap="round"/>
<path d="M90 430C128.66 430 160 398.66 160 360C160 321.34 128.66 290 90 290C51.3401 290 20 321.34 20 360C20 398.66 51.3401 430 90 430Z" fill="#F2F5F7" stroke="#F2F5F7" stroke-width="10" stroke-miterlimit="10"/>
<path d="M90 430C128.66 430 160 398.66 160 360C160 321.34 128.66 290 90 290C51.3401 290 20 321.34 20 360C20 398.66 51.3401 430 90 430Z" stroke="#C0CFD8" stroke-width="4" stroke-miterlimit="10"/>
<path d="M91.4802 392.633C109.503 391.816 123.451 376.542 122.633 358.52C121.816 340.497 106.542 326.549 88.5197 327.367C70.4969 328.184 56.5493 343.458 57.3669 361.48C58.1844 379.503 73.4575 393.451 91.4802 392.633Z" stroke="#C0CFD8" stroke-width="2" stroke-miterlimit="10"/>
<path d="M90 383.333C102.887 383.333 113.333 372.887 113.333 360C113.333 347.113 102.887 336.667 90 336.667C77.1133 336.667 66.6666 347.113 66.6666 360C66.6666 372.887 77.1133 383.333 90 383.333Z" stroke="#C0CFD8" stroke-width="2" stroke-miterlimit="10"/>
<path d="M107.848 305.062C116.437 306.513 123.162 309.67 128.024 314.532C132.886 319.394 135.959 326.035 137.243 334.456" stroke="#C0CFD8" stroke-width="2" stroke-miterlimit="10" stroke-linecap="round"/>
<path d="M109.448 313.816C114.883 314.666 119.154 316.657 122.261 319.79C125.368 322.922 127.357 327.244 128.23 332.754" stroke="#C0CFD8" stroke-width="2" stroke-miterlimit="10" stroke-linecap="round"/>
<path d="M68.0477 409C59.4592 407.549 52.7338 404.392 47.8717 399.53C43.0096 394.668 39.9368 388.026 38.6531 379.605" stroke="#C0CFD8" stroke-width="2" stroke-miterlimit="10" stroke-linecap="round"/>
<path d="M66.4483 400.245C61.0129 399.396 56.7418 397.404 53.6351 394.272C50.5283 391.139 48.5386 386.818 47.666 381.307" stroke="#C0CFD8" stroke-width="2" stroke-miterlimit="10" stroke-linecap="round"/>
<path d="M710 430C748.66 430 780 398.66 780 360C780 321.34 748.66 290 710 290C671.34 290 640 321.34 640 360C640 398.66 671.34 430 710 430Z" fill="#F2F5F7" stroke="#F2F5F7" stroke-width="10" stroke-miterlimit="10"/>
<path d="M710 430C748.66 430 780 398.66 780 360C780 321.34 748.66 290 710 290C671.34 290 640 321.34 640 360C640 398.66 671.34 430 710 430Z" stroke="#C0CFD8" stroke-width="4" stroke-miterlimit="10"/>
<path d="M711.48 392.633C729.503 391.815 743.451 376.542 742.633 358.52C741.816 340.497 726.542 326.549 708.52 327.367C690.497 328.184 676.549 343.457 677.367 361.48C678.184 379.503 693.458 393.451 711.48 392.633Z" stroke="#C0CFD8" stroke-width="2" stroke-miterlimit="10"/>
<path d="M710 383.333C722.887 383.333 733.333 372.887 733.333 360C733.333 347.113 722.887 336.667 710 336.667C697.113 336.667 686.667 347.113 686.667 360C686.667 372.887 697.113 383.333 710 383.333Z" stroke="#C0CFD8" stroke-width="2" stroke-miterlimit="10"/>
<path d="M727.848 305.062C736.437 306.513 743.162 309.67 748.024 314.532C752.886 319.394 755.959 326.035 757.243 334.456" stroke="#C0CFD8" stroke-width="2" stroke-miterlimit="10" stroke-linecap="round"/>
<path d="M729.448 313.816C734.883 314.666 739.154 316.657 742.261 319.79C745.368 322.922 747.357 327.244 748.23 332.754" stroke="#C0CFD8" stroke-width="2" stroke-miterlimit="10" stroke-linecap="round"/>
<path d="M688.048 409C679.459 407.549 672.734 404.392 667.872 399.53C663.01 394.668 659.937 388.026 658.653 379.605" stroke="#C0CFD8" stroke-width="2" stroke-miterlimit="10" stroke-linecap="round"/>
<path d="M686.448 400.245C681.013 399.396 676.742 397.404 673.635 394.272C670.528 391.139 668.539 386.818 667.666 381.307" stroke="#C0CFD8" stroke-width="2" stroke-miterlimit="10" stroke-linecap="round"/>
<path d="M400 345C466.274 345 520 291.274 520 225C520 158.726 466.274 105 400 105C333.726 105 280 158.726 280 225C280 291.274 333.726 345 400 345Z" fill="#F2F5F7" stroke="#F2F5F7" stroke-width="16" stroke-miterlimit="10"/>
<path d="M760.307 413.621C755.926 412.027 751.322 411.134 746.664 410.974C746.467 409.802 746.14 408.657 745.691 407.557C739.597 392.495 719.596 383.652 699.456 388.214C686.42 391.167 676.809 398.938 673.119 408.191C666.198 408.273 658.909 410.204 652.885 413.906C639.377 422.21 631.627 437.061 632.346 450H789.386C789.439 435.307 777.843 419.891 760.307 413.621V413.621Z" fill="#C0CFD8"/>
<path fill-rule="evenodd" clip-rule="evenodd" d="M800 354.481C792.349 349.408 783.343 346.47 773.692 346.47C748.701 346.491 728 366.101 724.144 391.792H723.495C694.062 390.864 677.367 413.236 677.367 439.694C677.367 443.418 677.799 446.844 678.588 450H800V354.481V354.481Z" fill="white"/>
<path d="M520.237 225.06C520.043 291.388 466.117 344.999 399.789 344.805C333.462 344.611 279.851 290.684 280.045 224.357C280.239 158.03 334.166 104.419 400.493 104.613C466.82 104.807 520.431 158.733 520.237 225.06Z" fill="#0E1C43"/>
<path d="M399.829 223.912L341.573 223.742L341.718 174.367C341.732 169.452 345.729 165.478 350.644 165.493L400 165.637L399.829 223.912H399.829Z" fill="#3D84F5"/>
<path d="M458.105 224.083L399.829 223.912L400 165.637L449.356 165.782C454.271 165.796 458.245 169.793 458.23 174.708L458.104 224.083H458.105Z" fill="#183889"/>
<path d="M399.659 282.187L350.303 282.043C345.409 282.029 341.444 278.068 341.428 273.174L341.573 223.742L399.829 223.912L399.659 282.187V282.187Z" fill="#215CCA"/>
<path d="M370.87 208.238C378.404 208.26 384.531 202.17 384.553 194.635C384.575 187.1 378.484 180.975 370.95 180.953C363.415 180.931 357.289 187.02 357.267 194.555C357.245 202.09 363.335 208.216 370.87 208.238V208.238Z" stroke="white" stroke-width="6.59164" stroke-linejoin="round"/>
<path d="M370.776 240.21L356.305 265.016L385.008 265.1L370.776 240.21V240.21Z" stroke="white" stroke-width="6.59164" stroke-linejoin="round"/>
<path d="M416.959 194.825L442.261 194.899" stroke="white" stroke-width="6.59164" stroke-linecap="round" stroke-linejoin="round"/>
<path d="M416.923 206.918L442.225 206.992" stroke="white" stroke-width="6.59164" stroke-linecap="round" stroke-linejoin="round"/>
<path d="M416.994 182.731L442.296 182.805" stroke="white" stroke-width="6.59164" stroke-linecap="round" stroke-linejoin="round"/>
<path d="M399.839 223.912L458.095 224.083L457.95 273.458C457.936 278.373 453.939 282.346 449.024 282.332L399.668 282.187L399.839 223.912V223.912Z" fill="#C0CFD8"/>
<path d="M458.197 295.888L408.893 290.585L415.224 232.328L473.481 238.659L468.178 288C467.572 292.919 463.123 296.435 458.197 295.888Z" fill="#D9118F"/>
<path d="M449.179 278.043L430.288 276.098C428.649 275.906 427.47 274.425 427.653 272.784L429.692 253.893C429.873 252.265 431.338 251.092 432.969 251.272L433.006 251.277L451.802 253.221C453.437 253.334 454.672 254.749 454.559 256.383C454.553 256.466 454.546 256.549 454.532 256.63L452.587 275.521C452.286 277.124 450.799 278.224 449.179 278.043V278.043Z" stroke="white" stroke-width="6.59164" stroke-linejoin="round"/>
</svg>
